assets/images/icon/icon-tl.svg

<?xml version="1.0" encoding="UTF-8" standalone="no"?>
<svg
   xmlns:dc="http://purl.org/dc/elements/1.1/"
   xmlns:cc="http://creativecommons.org/ns#"
   xmlns:rdf="http://www.w3.org/1999/02/22-rdf-syntax-ns#"
   xmlns:svg="http://www.w3.org/2000/svg"
   xmlns="http://www.w3.org/2000/svg"
   xmlns:sodipodi="http://sodipodi.sourceforge.net/DTD/sodipodi-0.dtd"
   xmlns:inkscape="http://www.inkscape.org/namespaces/inkscape"
   width="23"
   height="20.666655"
   viewBox="0 0 21.56219 19.37471"
   id="svg2"
   version="1.1"
   inkscape:version="0.91 r"
   sodipodi:docname="icon-tl.svg">
  <metadata
     id="metadata12">
    <rdf:RDF>
      <cc:Work
         rdf:about="">
        <dc:format>image/svg+xml</dc:format>
        <dc:type
           rdf:resource="http://purl.org/dc/dcmitype/StillImage" />
        <dc:title></dc:title>
      </cc:Work>
    </rdf:RDF>
  </metadata>
  <defs
     id="defs10" />
  <sodipodi:namedview
     pagecolor="#ffffff"
     bordercolor="#666666"
     borderopacity="1"
     objecttolerance="10"
     gridtolerance="10"
     guidetolerance="10"
     inkscape:pageopacity="0"
     inkscape:pageshadow="2"
     inkscape:window-width="1440"
     inkscape:window-height="845"
     id="namedview8"
     showgrid="false"
     fit-margin-top="0"
     fit-margin-left="0"
     fit-margin-right="0"
     fit-margin-bottom="0"
     inkscape:zoom="7.2094528"
     inkscape:cx="24.764184"
     inkscape:cy="5.7003581"
     inkscape:window-x="0"
     inkscape:window-y="27"
     inkscape:window-maximized="1"
     inkscape:current-layer="svg2" />
  <path
     style="fill:#868686;fill-opacity:1"
     d="m 16.037778,19.356875 c -0.04287,-0.01548 -0.175057,-0.06278 -0.293761,-0.105103 -0.126504,-0.04511 -1.040369,-0.710138 -2.208195,-1.606917 -1.095805,-0.841474 -2.008725,-1.524291 -2.02871,-1.517368 -0.01998,0.0069 -0.57735,0.503583 -1.238583,1.103693 C 9.607293,17.831289 8.980671,18.368554 8.876033,18.425102 8.734596,18.501532 8.585804,18.52789 8.296102,18.527813 7.669005,18.527625 7.371353,18.311976 7.050912,17.625578 6.980452,17.474655 6.569905,16.201964 6.138585,14.797373 L 5.354362,12.243575 3.201194,11.515198 C 2.016951,11.114591 0.97788304,10.742132 0.89215204,10.687511 -0.26791199,9.9484021 -0.30206099,8.6388427 0.82138204,7.9736487 0.97461204,7.8829187 3.999215,6.5880986 7.542719,5.0962656 20.622962,-0.41058316 19.594731,0.00725364 20.065973,0.00725364 c 0.575278,0 1.145165,0.36949197 1.380004,0.89473797 0.237495,0.53118399 0.263461,0.36758999 -1.449588,9.13306739 -1.174519,6.009887 -1.600087,8.092734 -1.693243,8.28723 -0.191585,0.399999 -0.462586,0.677081 -0.84761,0.866627 -0.306048,0.150668 -0.3999,0.171043 -0.842129,0.182832 -0.273732,0.0073 -0.532765,6.42e-4 -0.575629,-0.01487 z m 0.697715,-1.661788 c 0.04491,-0.04491 0.08202,-0.08582 0.08247,-0.09092 4.29e-4,-0.0051 0.698351,-3.574864 1.550894,-7.9328039 0.852542,-4.3579405 1.534224,-7.9299865 1.514845,-7.9378815 -0.01938,-0.0079 -1.529767,0.614007 -3.356419,1.382003 -10.214417,4.294547 -14.62188,6.1596325 -14.621269,6.1872105 4.28e-4,0.01703 1.082661,0.395856 2.405077,0.8418609 l 2.404391,0.810916 5.056953,-3.1330683 c 2.781325,-1.7231881 5.126647,-3.1573641 5.211829,-3.1870601 0.19522,-0.06805 0.352455,0.0069 0.352455,0.16791 0,0.154202 -0.239793,0.385955 -4.364434,4.2180861 -1.900347,1.7655783 -3.555113,3.3071913 -3.677256,3.4258073 l -0.22208,0.215663 -0.309071,1.969527 c -0.169991,1.083239 -0.303863,1.973927 -0.297495,1.979305 0.0064,0.0054 0.675099,-0.596261 1.4860756,-1.33698 1.3098074,-1.196333 1.4839084,-1.33865 1.5587264,-1.27415 0.182832,0.157614 4.766951,3.656751 4.86432,3.713018 0.144551,0.08353 0.264148,0.07741 0.359992,-0.01844 z"
     id="path4151"
     inkscape:connector-curvature="0" />
</svg>

<svg xmlns="http://www.w3.org/2000/svg" width="23" height="20.667" viewBox="0 0 21.56219 19.37471"><path d="M16.038 19.357l-.294-.105c-.126-.045-1.04-.71-2.208-1.607-1.096-.842-2.009-1.524-2.029-1.518-.02.007-.577.504-1.238 1.104-.662.6-1.288 1.138-1.393 1.194-.141.077-.29.103-.58.103-.627 0-.925-.216-1.245-.902-.07-.151-.481-1.424-.912-2.829l-.785-2.553-2.153-.729c-1.184-.4-2.223-.773-2.309-.827-1.16-.74-1.194-2.05-.07-2.714.153-.091 3.177-1.386 6.72-2.878C20.624-.41 19.596.007 20.067.007c.575 0 1.145.37 1.38.895.237.531.263.368-1.45 9.133-1.174 6.01-1.6 8.093-1.693 8.287a1.77 1.77 0 0 1-.847.867c-.307.15-.4.171-.843.183-.273.007-.532 0-.575-.015zm.697-1.662a.707.707 0 0 0 .083-.09c0-.006.698-3.576 1.55-7.934.853-4.358 1.535-7.93 1.516-7.938-.02-.007-1.53.614-3.357 1.382C6.313 7.41 1.905 9.275 1.906 9.303c0 .017 1.083.396 2.405.842l2.404.81 5.057-3.133C14.554 6.1 16.9 4.665 16.984 4.635c.195-.068.353.007.353.168 0 .154-.24.386-4.365 4.218-1.9 1.766-3.555 3.308-3.677 3.426l-.222.216-.31 1.97a78.329 78.329 0 0 0-.297 1.979c.007.005.675-.597 1.486-1.337 1.31-1.197 1.484-1.339 1.56-1.274a434.76 434.76 0 0 0 4.864 3.713c.144.083.264.077.36-.019z" fill="#868686"/></svg>
